X:1
T:Title
%%score { 1 | 2 } 3
L:1/8
Q:1/4=100
M:4/4
K:G
V:1 bass nm="Grand Piano, Piano"
V:2 bass 
V:3 treble nm="Clarinet, Clarinet"
V:1
 z4 z2 B,B, | B, B,2 B,[K:treble] E^DED | E E3- E2 FE | ^D D3- D2 DD | B, B,3- B,2 B,B, | %5
 B, B,2 B,[K:treble] E^DED | E E3- E2 FE | ^D D3- D2 DD | B, B,3- B,EE[K:treble]E | C4- CC C/C/C | %10
 B,4- B,B,/B,/ B,B, | ^D4- DDDD | E4- EE E/E/E | C2 C2- CCCC | B,B, B,2- B,E[K:treble]EE | %15
 ^D2 D2- DDDD | B,6 z2 |] %17
V:2
 z4 z2 B,,B,, | [E,G,] [E,G,]2 [E,A,] [E,B,][E,A,][E,B,][E,F,] | %2
 [E,G,] [E,G,]3- [E,G,]2 [E,B,][E,B,] | [B,,B,] [B,,B,]3- [B,,B,]2 [B,,A,][B,,A,] | %4
 [E,A,] [E,G,]3- [E,G,]2 B,,B,, | [E,G,] [E,G,]2 [E,A,] [E,B,][E,A,][E,B,][E,F,] | %6
 [E,G,] [E,G,]3- [E,G,]2 [E,B,][E,B,] | [B,,B,] [B,,B,]3- [B,,B,]2 [B,,A,][B,,A,] | %8
 [E,A,] [E,G,]3- [E,G,]E,E,E, | [A,,E,]4- [A,,E,][A,,E,] [A,,F,]/[A,,G,]/[A,,A,] | %10
 [E,G,]4- [E,G,][E,G,]/[E,G,]/ [E,A,][E,G,] | [B,,A,]4- [B,,A,][B,,A,][B,,G,][B,,F,] | %12
 [E,G,]4- [E,G,]E, E,/E,/E, | [A,,E,]2 [A,,E,]2- [A,,E,][A,,F,][A,,G,][A,,A,] | %14
 [E,G,][E,G,] [E,G,]2- [E,G,][E,G,][E,G,][E,G,] | [B,,A,]2 [B,,A,]2- [B,,A,][B,,C][B,,B,][B,,A,] | %16
 [E,G,]6 z2 |] %17
V:3
 z4 z2 B,B, | E E2 F GFGA | B B3- B2 AG | B F3- F2 GF | F E3- E2 B,B, | E E2 F GFGA | B B3- B2 AG | %7
 B F3- F2 GF | F E3- EEEE | A4- AA A/G/F | G4- GG/G/ FE | F4- FFGA | B4- BE E/E/E | A2 A2- AAGF | %14
 GG G2- GBBB | B2 F2- FAGF | E6 z2 |] %17

